!!!OTL: 743a. Abschied von Jnusbruck.
!!!ARE: Europa, Mitteleuropa, Deutschland
!!!SCT: E0743A
!!!TXL: @@DE
!!!YEM: Copyright 1995, estate of Helmut Schaffrath.
**kern	**text
*ICvox	*
!! Mixed meters:  3/2; 2/2
*M3/2	*
*k[b-]	*
*F:	*
!LO:TX:a:t=Dieſelbe Melodie im volksthümlichen Rhythmus dargeſtellt v. B.	!
{2f	Jnns-
=1	=1
4f	-bruck,
4g	ich
2a	muß
2cc	dich
=2	=2
2b-	laſ-
2a	-ſen,
4r}	.
{4a	ich
=3	=3
4.cc	fahr
8b-	da-
2g	-hin
2a	mein
=4	=4
2f	Stra-
2e	-ßen
4r}	.
{4f	in
=5	=5
*M2/2	*
4g	frem-
4f	-de
4e	Land
4f	da-
=6	=6
2g	-hin.
4r}	.
{4g	Mein
=7	=7
*M3/2	*
4f	Freud
4g	iſt
2a	mir
2cc	ge-
=8	=8
2b-	-nommen,
2a	.
4r}	.
{4a	die
=9	=9
4cc	ich
4b-	nit
2g	weiß
2a	be-
=10	=10
2f	-kom-
2e	-men,
4r}	.
{4e	wo
=11	=11
4f	ich
4g	in
2a	E-
2g	-lend
=12	=12
1f;}	bin.
==	==
!!!AGN: Abschieds - Lied, Liebe
!!!ONB: ESAC (Essen Associative Code) Database: ERK2
!!!AMT: irregular
!!!AIN: vox
!!!EED: Helmut Schaffrath
!!!EEV: 1.0
!!!GTL: Abschieds- und Wanderlieder
!!!URL-scan: https://rosdok.uni-rostock.de/mcrviewer/recordIdentifier/rosdok_ppn745177662/iview2/phys_0550.iview2?x=193.8995864193107&y=275.5523240719922&scale=0.7029437510502773&rotation=0&layout=singlePageLayout
!!!ENC: Anna Maria Matuszewska
!!!EEV: 2024/12/16
*-	*-
